packages/core/assets/Icons/arrow_alt_down.svg

<svg viewBox="0 0 20 20" fill="none" xmlns="http://www.w3.org/2000/svg">
<path d="M10 17.9792C9.88893 17.9792 9.78476 17.9618 9.68754 17.9271C9.59032 17.8924 9.50004 17.8334 9.41671 17.75L4.75004 13.0834C4.59726 12.9306 4.52087 12.7361 4.52087 12.5C4.52087 12.2639 4.59726 12.0695 4.75004 11.9167C4.91671 11.75 5.11462 11.6702 5.34379 11.6771C5.57296 11.684 5.76393 11.7639 5.91671 11.9167L9.16671 15.1459V2.50002C9.16671 2.26391 9.24657 2.06599 9.40629 1.90627C9.56601 1.74655 9.76393 1.66669 10 1.66669C10.2362 1.66669 10.4341 1.74655 10.5938 1.90627C10.7535 2.06599 10.8334 2.26391 10.8334 2.50002V15.1459L14.0625 11.9167C14.2292 11.75 14.4271 11.6667 14.6563 11.6667C14.8855 11.6667 15.0834 11.75 15.25 11.9167C15.4028 12.0834 15.4792 12.2813 15.4792 12.5104C15.4792 12.7396 15.4028 12.9306 15.25 13.0834L10.5834 17.75C10.5 17.8334 10.4098 17.8924 10.3125 17.9271C10.2153 17.9618 10.1112 17.9792 10 17.9792Z" fill="currentColor"/>
</svg>

<svg xmlns="http://www.w3.org/2000/svg" width="20" height="20" fill="none" viewBox="0 0 20 20">
  <path fill="#201F1F" d="M10 17.98a.923.923 0 0 1-.312-.053.73.73 0 0 1-.271-.177L4.75 13.083a.79.79 0 0 1-.23-.583.79.79 0 0 1 .23-.583.776.776 0 0 1 .594-.24c.229.007.42.087.573.24l3.25 3.229V2.5c0-.236.08-.434.24-.594.159-.16.357-.24.593-.24s.434.08.594.24c.16.16.24.358.24.594v12.646l3.229-3.23a.811.811 0 0 1 .593-.25.81.81 0 0 1 .594.25.85.85 0 0 1 .23.594c0 .23-.077.42-.23.573l-4.667 4.667a.73.73 0 0 1-.27.177.922.922 0 0 1-.313.052Z"/>
</svg>
